X:603
T:Duke of Perth #2, The
C:Joe Buchanan's Scottish Tome - Page 173.1
I:173 1
Z:Carl Allison
R:Reel
S:Reels
L:1/8
M:4/4
K:G
B | G/A/B/c/ dB | gB dB | gB dB | aA AB |
G/A/B/c/ dB  | gB dB | cA d>c | BG G :|
f | g>a ge | a>b af | g>a ge | be ef |
g>a ge | a>b af | gd d>c | BG G :|
